X:89
T: Changgong ku
N: C0112
O: China, Hubei, Laifeng
S: I, 443]
N: Vereinzelt Verzierungen.
R: Shange, Diqiang. Changgong suku]
M: 3/4
L: 1/32
K: C
c4c4d2e2d4 | d4d2e2g4g2e2 | d16
d4d4d2c2A4z4c'4
d4e4d4e4 | d4e4d4d4 | c16 | z8z4c'4
c6d2d4d2e2 | d4e4e2d4cd | d2c2A4z4c'4
e2d2d4c2c6 | d4d4e2d2d4 | c16

